X:1
T:The God of love - Tallis
T:James Gibb editions
T:#
%%score { ( 1 2 ) | ( 3 4 ) }
L:1/8
Q:1/4=120
M:none
K:C
V:1 treble nm="MusicXML Part"
V:2 treble 
V:3 bass 
V:4 bass 
V:1
"^George Herbert\n(1593-1633)""^The God of love my Shepherd is""^Metrical version of Psalm 23" E4 G4 G4 | %1
w: |
w: |
w: |
 G12 G4 A4 A4 | B12 B4 | B12 B4 B4 c4 |"^Thomas Tallis\n(1505-1585)" B12 || E4 B4 B4 | %6
w: |||||
w: |||||
w: |||||
 B12 G4 A4 A4 | B12 B4 | B12 B4 c4 A4 | B12 || B4 | (B6 c2) d4 | e8 d4 | c4 c4 B12 G4 | %14
w: ||||||||
w: ||||||||
w: ||||||||
 A12 E4 F4 F4 | E12 || A4 | (c6 B2) A4 | G8 E4 | (A6 G2) F4 | E8 G4 | F4 D4 E4 E4 | E12 |] %23
w: ||Then|to * the|streams that|gent­ * ly|pass: In|both I have *|best.|
w: ||For|thou * art|with me;|and * thy|rod To|guide, thy staff *|bear.|
w: ||And,|as * it|nev- er|shall * re-|move, So|nei- ther shall *|praise.|
V:2
 E4 E4 E4 | E12 E4 C4 D4 | B,12 E4 | E12 ^D4 E4 E4 | E12 || E4 E4 E4 | E12 E4 E4 D4 | B,12 E4 | %8
w: The God of|love my Shep- herd|is, And|he that doth me|feed;|While he is|mine and I am|his, What|
w: Or if I|stray, he doth con-|vert, And|bring my mind in|frame;|And all this|not for my de-|sert, But|
w: Nay, thou dost|make me sit and|dine, Ev'n|in my enem- ies'|sight:|My head with|oil, my cup with|wine Runs|
 E12 E4 E4 C4 | E12 || E4 | (E4 G4) F4 | E8 G4 | E4 E4 E12 E4 | E12 E4 E4 D4 | C12 || C4 | C8 C4 | %18
w: can I want or|need?|He|leads * me|to the|ten- der grass, Where|I both feed and|rest;|||
w: for his ho- ly|name.|Yea,|in * death's|sha- dy|black a- bode Well|may I walk, not|fear;|||
w: ov- er day and|night.|Sure-|ly * thy|sweet and|wond- rous love Shall|meas- ure all my|days;|||
 C8 C4 | C8 C4 | C8 C4 | C4 D4 C4 C4 | B,12 |] %23
w: |||||
w: |||||
w: |||||
V:3
 G,4 B,4 B,4 | B,12 B,4 A,4 A,4 | ^G,12 G,4 | ^G,12 ^F,4 G,4 A,4 | ^G,12 || %5
w: |||||
w: |||||
w: |||||
 !courtesy!=G,4 G,4 G,4 | G,12 B,4 A,4 A,4 | ^G,12 G,4 | ^G,12 G,4 A,4 A,4 | ^G,12 || %10
w: |||||
w: |||||
w: |||||
 !courtesy!=G,4 | (G,6 A,2) B,4 | C8 B,4 | A,4 A,4 G,12 B,4 | C12 A,4 A,4 A,4 | A,12 || E,4 | %17
w: |||||||
w: |||||||
w: |||||||
 (A,6 G,2) F,4 | E,8 G,4 | (C6 B,2) A,4 | G,8 E,4 | A,4 A,4 A,4 (E,2 ^F,2) | ^G,12 |] %23
w: ||||* * * the *||
w: ||||* * * to *||
w: ||||* * * my *||
V:4
 E,4 E,4 E,4 | E,12 G,4 F,4 F,4 | E,12 E,4 | E,12 B,,4 E,4 A,,4 | E,12 || E,4 E,4 E,4 | %6
 E,12 G,4 F,4 F,4 | E,12 E,4 | E,12 E,4 A,,4 A,,4 | E,12 || E,4 | E,8 D,4 | C,8 G,,4 | %13
 A,,4 A,,4 E,12 E,4 | A,,12 C,4 D,4 D,4 | A,,12 || A,,4 | A,,8 A,,4 | C,8 C,4 | A,,4 F,,8 | %20
 C,8 C,4 | F,,4 F,,4 A,,4 A,,4 | E,12 |] %23

